X: 5862
T: Callow Lake
R: waltz
M: 3/4
K: Adorian
Je6|cBA4|{Bc}BAG4|JA4 E2-|E2 GF E2|JE6|Je3 c d2|{f}d2 {f}d2cB|A2 cB A2|JA6|
Je6|cBA4|{Bc}BAG4|{G}A4 E2-|E2 GF E2|JE6|Je3 c d2|{f}d2 {f}d (3cBA|JA4 (3cBA|JA4-A{c/}A|
^G2 A2 B2|E2 Jc2 JB2|B{c/}B A4|{c/}A^GA/A/JB d2|{f}d2 {f}d2 cz|(3cBAJA3A|A6:|

